public/boltz-icon.svg

<?xml version="1.0" encoding="UTF-8"?>
<svg width="78px" height="78px" viewBox="0 0 78 78" version="1.1" xmlns="http://www.w3.org/2000/svg" xmlns:xlink="http://www.w3.org/1999/xlink">
    <defs>
        <linearGradient x1="50%" y1="0%" x2="50%" y2="100%" id="linearGradient-1">
            <stop stop-color="#FFE96D" offset="0%"></stop>
            <stop stop-color="#E1C218" offset="100%"></stop>
        </linearGradient>
        <linearGradient x1="50%" y1="0%" x2="50%" y2="100%" id="linearGradient-2">
            <stop stop-color="#FFE96D" offset="0%"></stop>
            <stop stop-color="#ECD138" offset="62.3511283%"></stop>
            <stop stop-color="#E1C218" offset="100%"></stop>
        </linearGradient>
    </defs>
    <g id="Logo" stroke="none" stroke-width="1" fill="none" fill-rule="evenodd">
        <g id="Group">
            <circle stroke="#EED33E" stroke-width="3" fill="#081E36" cx="39" cy="39" r="37.5"></circle>
            <path d="M36.4583326,43.7755404 L40.53965,35.2316544 L39.4324865,35.2316544 L46.0754873,17.6071752 C46.292579,17.0204094 46.3287609,16.5159331 46.1840331,16.0937464 C46.0393053,15.671561 45.7860319,15.3674444 45.4242131,15.1813966 C45.0623942,14.9953487 44.6535376,14.9524146 44.1976433,15.0525945 C43.7417511,15.1527743 43.3256596,15.4461573 42.9493689,15.9327433 L22.6078557,40.7701025 C22.2026186,41.2710003 22,41.7575877 22,42.2298646 C22,42.6735173 22.1592003,43.0420366 22.477601,43.3354226 C22.7960017,43.6288058 23.1940025,43.7755404 23.6716036,43.7755404 L36.4583326,43.7755404 Z" id="Path" fill="url(#linearGradient-1)"></path>
            <path d="M44.4883879,63.7755404 L48.8604707,55.165009 L47.6744296,55.165009 L54.7906978,37.4030526 C55.0232558,36.8117097 55.0620155,36.3032983 54.9069768,35.8778185 C54.7519381,35.4523399 54.4806208,35.1458511 54.0930248,34.958352 C53.7054289,34.7708528 53.2674441,34.7275839 52.7790706,34.8285452 C52.2906992,34.9295065 51.8449641,35.2251779 51.4418653,35.7155595 L29.6511611,60.746659 C29.2170537,61.251464 29,61.7418469 29,62.2178078 C29,62.6649211 29.1705423,63.036315 29.5116268,63.3319895 C29.8527113,63.6276613 30.2790669,63.7755404 30.7906936,63.7755404 L44.4883879,63.7755404 Z" id="Path-Copy" fill="url(#linearGradient-2)" transform="translate(42.000000, 49.275540) rotate(-180.000000) translate(-42.000000, -49.275540) "></path>
        </g>
    </g>
</svg>

<svg width="30px" height="30px" version="1.1" viewBox="0 0 30 30" xmlns="http://www.w3.org/2000/svg">
 <defs>
  <linearGradient id="linearGradient-1" x1="37.168" x2="37.168" y1="13.776" y2="40.203" gradientTransform="scale(.9184 1.0889)" gradientUnits="userSpaceOnUse">
   <stop stop-color="#FFE96D" offset="0"/>
   <stop stop-color="#E1C218" offset="1"/>
  </linearGradient>
  <linearGradient id="linearGradient-2" x1="44.357" x2="44.357" y1="32.928" y2="60.387" gradientTransform="scale(.94686 1.0561)" gradientUnits="userSpaceOnUse">
   <stop stop-color="#FFE96D" offset="0"/>
   <stop stop-color="#ECD138" offset=".62351"/>
   <stop stop-color="#E1C218" offset="1"/>
  </linearGradient>
 </defs>
 <g id="Logo" transform="scale(.38419)" fill="none" fill-rule="evenodd">
  <g id="Group">
   <circle cx="39" cy="39" r="37.5" fill="#081e36" stroke="#eed33e" stroke-width="3"/>
   <path id="Path" d="m36.458 43.776 4.0813-8.5439h-1.1072l6.643-17.624c.21709-.58677.25327-1.0912.10855-1.5134-.14473-.42218-.398-.7263-.75982-.91235-.36182-.18605-.77068-.22898-1.2266-.1288-.45589.10018-.87198.39356-1.2483.88015l-20.342 24.837c-.40524.5009-.60786.98749-.60786 1.4598 0 .44365.1592.81217.4776 1.1056.3184.29338.7164.44012 1.194.44012z" fill="url(#linearGradient-1)" style="fill:url(#linearGradient-1)"/>
   <path id="Path-Copy" transform="rotate(180 42 49.276)" d="m44.488 63.776 4.3721-8.6105h-1.186l7.1163-17.762c.23256-.59134.27132-1.0998.11628-1.5252-.15504-.42548-.42636-.73197-.81395-.91947s-.82558-.23077-1.314-.12981c-.48837.10096-.93411.39663-1.3372.88701l-21.791 25.031c-.43411.5048-.65116.99519-.65116 1.4711 0 .44711.17054.81851.51163 1.1142.34108.29567.76744.44355 1.2791.44355z" fill="url(#linearGradient-2)" style="fill:url(#linearGradient-2)"/>
  </g>
 </g>
</svg>
